resources/haticons/SVG/no_cell.svg

<!-- Generated by IcoMoon.io -->
<svg version="1.1" xmlns="http://www.w3.org/2000/svg" width="24" height="24" viewBox="0 0 24 24">
<title>no_cell</title>
<path d="M8.813 6l-3.703-3.703q0.234-0.563 0.75-0.938t1.125-0.375l10.031 0.047q0.797 0 1.383 0.563t0.586 1.406v13.172l-1.969-2.016v-8.156h-8.203zM19.781 22.594l-0.891-0.891q-0.234 0.563-0.75 0.938t-1.125 0.375h-10.031q-0.797 0-1.383-0.586t-0.586-1.43v-13.172l-3.609-3.609 1.406-1.406 18.375 18.375zM15.188 18l-8.203-8.156v8.156h8.203z"></path>
</svg>

<svg xmlns="http://www.w3.org/2000/svg" width="24" height="24"><path d="M8.813 6L5.11 2.297q.234-.563.75-.938T6.985.984l10.031.047q.797 0 1.383.563T18.985 3v13.172l-1.969-2.016V6H8.813zm10.968 16.594l-.891-.891q-.234.563-.75.938t-1.125.375H6.984q-.797 0-1.383-.586T5.015 21V7.828L1.406 4.219l1.406-1.406 18.375 18.375zM15.188 18L6.985 9.844V18h8.203z"/></svg>
